X:723
T:Night Cap, The
M:6/8
L:1/8
R:jig
B:O'Neill's 723
N:"collected by F. O'Neill"
Z:transcribed by mvhplank
K:G
G/2A/2|:Bcd d2 c|Bcd dBG|cee e2 d|cee ecA|\
Bdd d2 c|Bdd dBG|GBde2 d|gBG ~G2 G:|
||BGG dGG|BGB dcB|cAA eAA|cAe edc|\
BGG dGG|BGB dBG|GBd e2 d|gBG ~A2 G:|


